src/images/lightning.svg

<svg width="60" height="95" viewBox="0 0 60 95" fill="none" xmlns="http://www.w3.org/2000/svg"><path d="M60 0v10h-5v10h-5v10h-5v10h-5v5h15v10h-5v5h-5v5h-5v5h-5v5h-5v5h-5v5h-5v5h-5v5H0V85h5V75h5V65h5V55h5v-5H5V40h5v-5h5v-5h5v-5h5v-5h5v-5h5v-5h5V5h5V0h15z" fill="#FFE600"/><path fill-rule="evenodd" clip-rule="evenodd" d="M60 0H45v5h-5v5h-5v5h-5v5h-5v5h-5v5h-5v5h-5v5H5v10h15v5h-5v10h-5v10H5v10H0v10h15v-5h5v-5h5v-5h5v-5h5v-5h5v-5h5v-5h5v-5h5V45H40v-5h5V30h5V20h5V10h5V0zm-5 10h-5v10h-5v10h-5v10h-5v10h15v5h-5v5h-5v5h-5v5h-5v5h-5v5h-5v5h-5v5H5v-5h5V75h5V65h5V55h5V45H10v-5h5v-5h5v-5h5v-5h5v-5h5v-5h5v-5h5V5h10v5z" fill="#E31CB8"/></svg>

<svg width="60" height="95" viewBox="0 0 60 95" fill="none" xmlns="http://www.w3.org/2000/svg">
<path d="M60 0V10H55V20H50V30H45V40H40V45H55V55H50V60H45V65H40V70H35V75H30V80H25V85H20V90H15V95H0V85H5V75H10V65H15V55H20V50H5V40H10V35H15V30H20V25H25V20H30V15H35V10H40V5H45V0H60Z" fill="#FFE600"/>
<path fill-rule="evenodd" clip-rule="evenodd" d="M60 0H45V5H40V10H35V15H30V20H25V25H20V30H15V35H10V40H5V50H20V55H15V65H10V75H5V85H0V95H15V90H20V85H25V80H30V75H35V70H40V65H45V60H50V55H55V45H40V40H45V30H50V20H55V10H60V0ZM55 10H50V20H45V30H40V40H35V50H50V55H45V60H40V65H35V70H30V75H25V80H20V85H15V90H5V85H10V75H15V65H20V55H25V45H10V40H15V35H20V30H25V25H30V20H35V15H40V10H45V5H55V10Z" fill="#E31CB8"/>
</svg>
